svgs/thin/trumpet.svg

<svg xmlns="http://www.w3.org/2000/svg" viewBox="0 0 640 512"><!--! Font Awesome Pro 6.6.0 by @fontawesome - https://fontawesome.com License - https://fontawesome.com/license (Commercial License) Copyright 2024 Fonticons, Inc. --><path d="M617.2 80c-2.6 0-5.2 1.5-6.8 4.1C593.2 112.6 526.6 208 400 208l-40 0-88 0-88 0L16 208l0 48 128 0 40 0 88 0 88 0 40 0c126.6 0 193.2 95.4 210.4 123.9c1.6 2.6 4.2 4.1 6.8 4.1c3.8 0 6.8-3.1 6.8-6.8L624 224l0-137.2c0-3.8-3.1-6.8-6.8-6.8zM96 272l-80 0 0 8c0 4.4-3.6 8-8 8s-8-3.6-8-8l0-96c0-4.4 3.6-8 8-8s8 3.6 8 8l0 8 160 0 0-32c0-4.4 3.6-8 8-8s8 3.6 8 8l0 32 72 0 0-32c0-4.4 3.6-8 8-8s8 3.6 8 8l0 32 72 0 0-32c0-4.4 3.6-8 8-8s8 3.6 8 8l0 32 32 0c117.7 0 180.2-88.8 196.7-116.2c4.2-7 11.9-11.8 20.5-11.8C629.8 64 640 74.2 640 86.8L640 224l0 153.2c0 12.6-10.2 22.8-22.8 22.8c-8.6 0-16.3-4.8-20.5-11.8C580.2 360.8 517.7 272 400 272l-32 0 0 128 32 0c35.3 0 64-28.7 64-64c0-7.8-1.4-15.2-3.9-22.1c6.5 2.2 12.7 4.8 18.6 7.6c.9 4.7 1.3 9.6 1.3 14.6c0 44.2-35.8 80-80 80l-40 0-88 0-88 0-40 0c-44.2 0-80-35.8-80-80c0-26.2 12.6-49.4 32-64zm48 0c-35.3 0-64 28.7-64 64s28.7 64 64 64l32 0 0-128-32 0zm48 0l0 128 72 0 0-128-72 0zm88 0l0 128 72 0 0-128-72 0z"/></svg>

<svg xmlns="http://www.w3.org/2000/svg" viewBox="0 0 640 512"><!--! Font Awesome Pro 6.4.0 by @fontawesome - https://fontawesome.com License - https://fontawesome.com/license (Commercial License) Copyright 2023 Fonticons, Inc. --><path d="M617.2 80c-2.6 0-5.2 1.5-6.8 4.1C593.2 112.6 526.6 208 400 208H360 272 184 16v48H144h40 88 88 40c126.6 0 193.2 95.4 210.4 123.9c1.6 2.6 4.2 4.1 6.8 4.1c3.8 0 6.8-3.1 6.8-6.8V224 86.8c0-3.8-3.1-6.8-6.8-6.8zM96 272H16v8c0 4.4-3.6 8-8 8s-8-3.6-8-8V184c0-4.4 3.6-8 8-8s8 3.6 8 8v8H176V160c0-4.4 3.6-8 8-8s8 3.6 8 8v32h72V160c0-4.4 3.6-8 8-8s8 3.6 8 8v32h72V160c0-4.4 3.6-8 8-8s8 3.6 8 8v32h32c117.7 0 180.2-88.8 196.7-116.2c4.2-7 11.9-11.8 20.5-11.8C629.8 64 640 74.2 640 86.8V224 377.2c0 12.6-10.2 22.8-22.8 22.8c-8.6 0-16.3-4.8-20.5-11.8C580.2 360.8 517.7 272 400 272H368V400h32c35.3 0 64-28.7 64-64c0-7.8-1.4-15.2-3.9-22.1c6.5 2.2 12.7 4.8 18.6 7.6c.9 4.7 1.3 9.6 1.3 14.6c0 44.2-35.8 80-80 80H360 272 184 144c-44.2 0-80-35.8-80-80c0-26.2 12.6-49.4 32-64zm48 0c-35.3 0-64 28.7-64 64s28.7 64 64 64h32V272H144zm48 0V400h72V272H192zm88 0V400h72V272H280z"/></svg>
